X: 1
T: Valssi vanhaan tyyliin
C: Konsta Jylh\"a
R: waltz
Z: 2013 John Chambers <jc:trillian.mit.edu>
B: Mauno J\"arvel\"a ed., "Konstan nuottikirja", 1997 p.84
S: Handwritten doc from friend; playing of local friends.
Q: 3/4=54
M: 3/4
L: 1/8
K: C
"A"|:\
"C"(~G2 E2) G2 | e2 ze e2 | (~G2 E2) G2 | g2 zg g2 |\
"F"f3 e(df) | "C"e3 d(ce) | "G"(de) dc (Bc) | (dc) BA (GF) |
"C"(G2 E2) G2 | e2 ze e2 | (~G2 E2) G2 | g2 zg g2 |\
"Dm"(ag) fe (dc) | "G"(B2 A2) B2 | "C"c3 c c2 |1 "_Fine"c6 :|2 (c4 d2) ||[K:G]
"B"|:\
"G"(!d2 B2) c2 | (~d2 B2) d2 | db b2 g2 | d3 (^cdg) |\
"D"(fa) a2 f2 | "C"c3 (Bcd) | "G"(ce) e2 ~d2 | B3 (ABc) |
(~d2 B2) c2 | (~d2 B2) d2 | db b2 g2 | d2 (^cdg) |\
"D"f3 e(fa) | e2 f2 d2 | "G"g3 g g2 :|1 g4 d2 :| "_D.C."g6 |]
N: The source has "D.C. senza rep. al Fine" at bottom right.
